-----BEGIN PGP SIGNATURE-----
Version: BCPG v@RELEASE_NAME@

iQIcBAABCgAGBQJqw4J4AAoJELOccawO+EvwD3QQAL+Sq0WL8HQvFJbJcxCccEDv
zhUKVdHlyjzN3Nz3uHpYFKFN6ZZKrhvzaXYUjUbVHWOZK9aUJD9rgiwH1xxdnkK0
MAbkqolGAd6KYjwaaNJqewnd5ay0FJROogzfB1QN0pp061YB+Fd6HalcFy43BwY2
jFrd95szVsINN5a/UlB9PvvsxJ6zzzdpUaXvz3HctEdtGafGBcgXoucLBUq+x4qt
LcCjkoZMO6HzqwGT+8N0U5wMMWm+DzoctfXs23caiYjgcA1OGtxcfy9Z1svTQFb5
AY5h1oxqMahFlV8CYg+X9M9rqf1Cm1vnpYG584tBAI1CjpC31MZszXxYskmItVLq
R8TN4cCUJfh68NDqRs8T9vWuWxCpLo6n/7DXVqdNpFx+y8K51yCgC+yyLd/zFhqn
AyA8V3KIjVAD0YvTEyUUSQKR4qAzd1wPMqMIfjjpHAhJ7ipRGyaDU86LO6ERnkRe
b9crpcnYwDBZyQhhcSXsvsxyd/Ek2225obRK5rhYUW9B7UqUQ6otATl9vaWNVblT
lPNfOMJCAZIYY8O6mo3IS9OAfjDWlTtiaN7DNRbMctkjtU0Tc2wQhRF/iaxv5tVD
zNRhT60viNGrhLRwJO5vwug36h20XPMwu6nZi3/eVPhLvmF5C1kf3zdvkYFLBDQS
N1I21+INP/IrqunVcijN
=azDW
-----END PGP SIGNATURE-----
