-----BEGIN PGP SIGNATURE-----
Version: BCPG v@RELEASE_NAME@

iQIcBAABCgAGBQJqs+erAAoJELOccawO+Evw+yQP/3eiTJu8PYW7MWk3aunEoISv
jhCJw6++P3i5XWLpsiGilumFj31lLTb3Wh5DJu5SFUiX/uWtRhIvYgzRWo3CJOk5
w7BrdaZ/1Sb+LJqkixGfQV91dAJ9MC84C/KnsxOZSGYriHbxoLPvJPKCwRIO42Kr
rDcXW9LoEzCKt9jY9OzaN2W6VL53qDdSAKf/1Xml192N81rI3dDVnjkhbctiLRo9
tO1vJBaMRJXz5nHk5/TrTs87jkE6r5UHWuLjwkWtkLnLTxSMBZoTZ+bILQ/ellXG
ypMC9jWVWEe50K8n6DtAxI8boTRImtoK8a+FKc5U83Hw7cjOVac0XLG7uHsmempg
Jk4l6+KMUq4brYTkvljOTs6O1h9ecimPIcTu9hnFO3lKLImLpfr8tTbjGLjoWMYx
8B69UFShrUmwzxR+kZCM32q0f1/cb9vRmyng46iUqhxoZ+Bc+UqxZBJnbxgUPNvZ
EpKD5GGMfJ6q0O7BCX24arF1MxDF3LcqoSxJihuw/6pWb88C/GxWKSb/i3vc7F5/
r8QRGoVgQxxzc/2KcXb1QfJyX3BKrQd858KPCwiHapzae2zdAblqpPXLYyq0kU7w
RXlISQRXJz6I735YUjCfqdOvS89ADBr3qXAMf7WmUR/FBSPU1288Oqet11tdD4kS
VN6d3hRCHpe1qfC+a+ID
=xpmU
-----END PGP SIGNATURE-----
