-----BEGIN PGP SIGNATURE-----
Version: BCPG v@RELEASE_NAME@

iQIcBAABCgAGBQJo1a1LAAoJELOccawO+EvwxvwQAL9RlPF8XsDLXbJTCB95Yh54
0hgg9pAE3mkPx75HXJaVjAdscNBkd3j4ul3QQNFA5D8g7yiYhjXV7Xj0zsPqNTya
ExnJbpu2835TMRd/eVk1YAUCrrsx7VB8IpqagibjAhBEXljiljt6wOiZCttAus80
x8NxBasWr9yz5JkVYqHFY6Qieew4ZDvSPohtZ/uJ/Cl+KeeHdCw+pNGJBCDswJau
yc3DVTElotMfuRQGz+84V/7YNPEk0OrIWdSrnX8fQZ8SmffYPlLzeJ2NRDmrSWEK
BlKDTU8o+Rgfrri/iHBXlKGsBNYuy2M1ZXKbnLVMP9sLBSAuJYCZiBVNzq4f+AuN
1V+xT4oY2j+/iAHRmK9vKGdFr4s/2vbY8TTacAXyGxCvDFKdnSvR5VO7ysiOHxqZ
pSGvbusZMLTiVpuj0LZOhU+2eGWUBmUaBhdF+/oT4RZUu7i5KijcX9Txtf6/YxWT
1vPryBANeCnOUP387Zw7M/3z+Fyj+7tUF64+PQCOQRbxiNXXNjCI1Ou2oY7Hy/wR
KDu+fl1IorXocBCK2viNPbIZuuSkhZy8mf7VS90aabp/TS2wchfs7/HMjj+CjPob
W/0DB4iOAxPMgXRnacUDkFQMyehYH5MXHbrS8hyRiNDeZaku77mw0/a6DvWMouVH
9IrWRdWgmQE35T69XgtK
=m+dd
-----END PGP SIGNATURE-----
