-----BEGIN PGP SIGNATURE-----
Version: BCPG v@RELEASE_NAME@

iQIcBAABCgAGBQJqw4omAAoJELOccawO+EvwHK0P/2Da7NliiCJedqDPeBGAw9vw
FLPuns0IUvfFfNZSjwVjmdWsDexPoJbMtw9DeVyx+SK4sM9Eg5LBfXw3aTNTgsUU
Jv+0gdsb+wwF/LMA+1KFfdunjcGtN6SauVZBjRgj+wpl3qHiLBOF7gxTbb6Tj90K
2yVdAlQR8gINOxV7IOQLSA81jA5lY4nSH/cH4ZW66/yWGMMZ3zxiKlTgW1fEX4uu
uYUJ80xLsAjVvPG/WvJMWBeLjyXFodkyqnmvTZmrdmsm9aiVDQ/VCiIwDFLEgqJp
EPsJJouAbMnnUHEq4Ys6xFgL2fL61sZ0jqJYR9Sy+u6D7LcJZOogLmh72u/diSF5
eNRjGPRlK4AtVyan43+PqxQZI/igLVYxyW6ztjbZi9+wJPT55FB71OVhLt4pbGXh
SriOxud0Be31JlQ9WAEid3xPmJpQHcaI26Ok6/xR8HrhEQqrzU+MfYOwg4VMC6R5
GpPcRxAg2OfKGMpvTwCzFDVbmrFYVSnogJRx2mdWMLZetEAN0woJsrvF/+1GChf8
/1gcT+NTyeMooLEjdyzaVKNjck+JJ/FcWxdWza8vD2CnYzYgr9mEo/0wtxK5RguG
+z8JPUW7ynosRZMS6U1Oy5YQwlsbNc9F9Fk64rCTlKNXYRxJ4zqq2wanYJe6gPMU
QayiZy+RKRA0g7vHmd81
=ynNW
-----END PGP SIGNATURE-----
