-----BEGIN PGP SIGNATURE-----
Version: BCPG v@RELEASE_NAME@

iQIcBAABCgAGBQJqsQT8AAoJELOccawO+EvwNSIP/3pXqSqFbvmNKuTEP/wd+apM
EZKmPKHwmSVutmmFJ7+OGmUAEceawij5nJyHov0byl3ekEup2K3EYPGalmKhiFig
Z7MWQEv3BfNhu+KawFsKpaqmbb3zUHyscOwujMSMD7LHmhZBqgW31nfB89h0XsvN
jwlCyqDGHYzDdLB+akxh8Ks6gviZZZhGbgbLkXRmvMCmLHHln+WWN53N7QLmvCLj
ELFpuU+5sBtx6aqHswdkmDUc7GySfisDFqVbSNi7YtjAnG58+3MFK3wEkJB8vBMc
dO2DOmlFYaw2hNc2fqYQsSDvi4sX1dum4m/8obvB1NqMMv3TOH3LO1QyP1OXf9Nu
88wR7fn1Za/txgOECThwg6565RwKJwuqQxaNjUsIxuuw4YDjyQLm4Web8CsKF/pS
IYx8c2UUKhxAeON1pLuO6f1oFEHwaoqX7G8eTrvgnDVGAeK4lnp/rUZlVSrI/5v8
9PqpVtltCMcixeipULv8uyG9TEHnlEL50x1bin3sl3txyOHFPSf+g6WVCFm9y7tU
Q3cSkdy6v/qqNbRVH4mWy9lxsQrn+mtWxDM85Qb4AwwoDaN53cxPMhHt8MsGg4QY
nmfaSoAAj2n5g1Jbq6YG/25o4zD5RBNmyrZ/4AEduPSMKvPXxmJBmq0TpiM7n+Td
GQJnPgxc5OhD5l0tsWkV
=XsOl
-----END PGP SIGNATURE-----
