-----BEGIN PGP SIGNATURE-----
Version: BCPG v@RELEASE_NAME@

iQIcBAABCgAGBQJqsoiHAAoJELOccawO+Evw0DMQAMTytEVxVuMTcBfC3B3Jt9CK
U3pP2Ery1vO0R/963FtwviRPfhOor3/SEjNjqVzmyC+6xedroDKfcLX6pKrZ3/Qc
zp9piwO/Ud9zMr+Fk/ylzhtPsYM9HsC/MESA/n9iRTu1g/jc7XRStSYdj8mYpzeR
lanqXxGTWWWejvDI/cCYUwA7om56KzJBzM/AZaIWqIKHb26pSl3E6j+CYTiM1pUH
4IFOScfMQeLedVSiXyXWs85s7tEHtIl3C8d8XCnN/N4nOn4F03CdoXtC21MnDTZI
6pP+8KlAJExDyE24E4J2dRZbA2tafBP5U9QWsvGsFNtsT6yJHoZcyUrMxWWeN+HH
BooAljciUyZXWhFKbKVgNnyXxCU+HtzLBBehRj/RSOBJYgO4XvvUFkM7p7Fb85YS
FI7BhDMOeoC6Xbi6L7XCP8IvjEUGoP/25HsQSD5/SgnzFTY+/35N2rdx126wO5zZ
hf2yXjCbSuvTJ4KO3oj+3P91ccVG19CcLTjX+H4Zo/ClMhCj1FY8pPmwH/Twasnv
fW+IauVZ+VPfSo1inXUi5by6yYBAN+ddjz7VbmFXPM9aeqwqI6scHrmUXz1IBGw+
56/c/cNI7UowRosTUOLBIDmY6JUrZOkYTShBGifWch5nk8eYIF5f9al+VscDT0zL
qLKKV4OL37DhS6Cqvl4i
=3Lyo
-----END PGP SIGNATURE-----
